icon/fa/explosion.svg

<svg xmlns="http://www.w3.org/2000/svg" viewBox="0 0 576 512"><!--! Font Awesome Free 6.1.2 by @fontawesome - https://fontawesome.com License - https://fontawesome.com/license/free (Icons: CC BY 4.0, Fonts: SIL OFL 1.1, Code: MIT License) Copyright 2022 Fonticons, Inc.--><path d="M499.6 11.32a24.037 24.037 0 0 1 31.7-8.506c11.1 5.94 15.8 19.506 10.6 31.026L404.8 338.6c2.1 2.3 4.2 4.7 6.3 7.1l97.1-54.6c10.5-5.9 23.7-3.2 30.9 6.4 7.3 9.5 6.3 23-3 30.6l-86.2 87h-71.4c-13.1-36.4-48.7-64-90.5-64s-77.4 27.6-90.5 64h-79.7l-75.46-51.4c-9.75-7.6-13.11-19.6-7.91-30.2 5.21-10.7 17.41-15.9 28.73-12.4l97.24 30.4c2.9-3.9 6.1-7.7 9.3-11.3l-62.3-103.9c-6-10-3.9-23 5.1-30.6 9-7.6 22.2-7.6 31.1.1L246 293.6l4.5-1.2 13.6-142.7c1.2-12.3 11.5-22.6 23.9-22.6 12.4 0 22.7 10.3 23.9 22.6l13.5 141.9L499.6 11.32zM544 447.1c17.7 0 32 15.2 32 32 0 18.6-14.3 32-32 32H32c-17.67 0-32-13.4-32-32 0-16.8 14.33-32 32-32h512zM288-.005c13.3 0 24 10.745 24 23.105v48c0 14.15-10.7 24-24 24s-24-9.85-24-24v-48c0-12.36 10.7-23.105 24-23.105z"/></svg>

<svg xmlns="http://www.w3.org/2000/svg" viewBox="0 0 576 512" height="1em" width="1em">
<!--! Font Awesome Free 6.1.2 by @fontawesome - https://fontawesome.com License - https://fontawesome.com/license/free (Icons: CC BY 4.0, Fonts: SIL OFL 1.1, Code: MIT License) Copyright 2022 Fonticons, Inc.-->
  <path d="M499.6 11.32C506.3 .5948 520.1-3.127 531.3 2.814C542.4 8.754 547.1 22.32 541.9 33.84L404.8 338.6C406.9 340.9 409 343.3 411.1 345.7L508.2 291.1C518.7 285.2 531.9 287.9 539.1 297.5C546.4 307 545.4 320.5 536.1 328.1L449.9 415.1H378.5C365.4 378.7 329.8 351.1 288 351.1C246.2 351.1 210.6 378.7 197.5 415.1H117.8L42.34 363.7C32.59 356.1 29.23 344.1 34.43 333.5C39.64 322.8 51.84 317.6 63.16 321.1L160.4 351.5C163.3 347.6 166.5 343.8 169.7 340.2L107.4 236.3C101.4 226.3 103.5 213.3 112.5 205.7C121.5 198.1 134.7 198.1 143.6 205.8L246 293.6C247.5 293.2 249 292.8 250.5 292.4L264.1 149.7C265.3 137.4 275.6 127.1 288 127.1C300.4 127.1 310.7 137.4 311.9 149.7L325.4 291.6L499.6 11.32zM544 447.1C561.7 447.1 576 462.3 576 479.1C576 497.7 561.7 511.1 544 511.1H32C14.33 511.1 0 497.7 0 479.1C0 462.3 14.33 447.1 32 447.1H544zM288-.0046C301.3-.0046 312 10.74 312 23.1V71.1C312 85.25 301.3 95.1 288 95.1C274.7 95.1 264 85.25 264 71.1V23.1C264 10.74 274.7-.0046 288-.0046V-.0046z"/>
</svg>
